static/img/logo.svg

<svg fill="none" height="446" viewBox="0 0 512 446" width="512" xmlns="http://www.w3.org/2000/svg"><path d="m57.669 226.312h396.662v60.701h-396.662z" fill="#f69583"/><path d="m217.934 445.46h-105.734c-5.69 0-10.302-4.612-10.302-10.302v-128.52h126.338v128.52c0 5.69-4.612 10.302-10.302 10.302z" fill="#ffcec0"/><path d="m399.8 445.46h-105.734c-5.69 0-10.302-4.612-10.302-10.302v-128.52h126.338v128.52c0 5.69-4.612 10.302-10.302 10.302z" fill="#ffcec0"/><path d="m78.03 240.015-29.321-80.56c-4.743-13.031-19.151-19.749-32.181-15.007-13.031 4.744-19.75 19.152-15.007 32.183l29.321 80.56z" fill="#fdb0a0"/><path d="m48.71 159.459 29.32 80.557-31.354 11.412-29.32-80.557c-2.552-7.011-7.90499-12.199-14.32899-14.749 2.812-5.227 7.48699-9.481 13.50099-11.67 13.034-4.744 27.438 1.973 32.182 15.007z" fill="#f69583"/><path d="m481.157 257.19 29.321-80.56c4.743-13.031-1.976-27.439-15.006-32.181-13.031-4.743-27.439 1.976-32.181 15.006l-29.321 80.56z" fill="#fdb0a0"/><path d="m510.479 176.634-29.32 80.557-23.595-8.588 29.32-80.557c3.18-8.738 1.208-18.091-4.362-24.723 4.205-.75 8.652-.435 12.949 1.129 13.026 4.741 19.752 19.148 15.008 32.182z" fill="#f69583"/><path d="m446.84 230.782c52.578-52.71 52.541-138.059-.119-190.719-50.466-50.466-130.956-52.602-183.968-6.415-3.855 3.359-9.653 3.359-13.508 0-53.011-46.188-133.502-44.052-183.968 6.415-52.659 52.659-52.696 138.009-.119 190.719l184.289 184.294c3.618 3.618 9.485 3.618 13.103 0z" fill="#fb4a59"/><path d="m446.843 230.779-184.288 184.298c-3.618 3.618-9.493 3.618-13.11 0l-23.036-23.046 176.033-176.032c52.576-52.71 52.534-138.062-.124-190.72-9.451-9.452-19.964-17.21302-31.148-23.27302 27.654 4.092 54.276 16.78002 75.55 38.05302 52.658 52.669 52.699 138.01.123 190.72z" fill="#f82f40"/><path d="m83.844 275.197c-3.383-.49-6.085-3.066-6.736-6.422l-12.893-66.453c-3.018-15.602-19.222-24.889-34.24-19.541-12.207 4.348-19.148 17.265-16.672 29.984l14.302 73.474 6.563 33.713c9.796 50.325 58.534 83.18 108.859 73.384l20.47-3.985c4.356-.848 7.2-5.066 6.352-9.422l-5.447-27.981c-7.807-40.107-40.121-70.893-80.558-76.751z" fill="#ffdfd0"/><path d="m163.493 389.349-17.543 3.415-5.794-29.79c-7.81-40.105-40.125-70.894-80.563-76.746-3.382-.492-6.083-3.069-6.734-6.424l-12.898-66.456c-2.222-11.529-11.666-19.612-22.499-20.884 2.975-4.345 7.252-7.81 12.507-9.679 15.022-5.353 31.229 3.934 34.243 19.534l12.898 66.456c.651 3.355 3.352 5.932 6.734 6.424 40.438 5.852 72.753 36.641 80.553 76.746l5.45 27.976c.85 4.358-1.995 8.58-6.354 9.428z" fill="#ffcec0"/><path d="m428.156 275.197c3.383-.49 6.085-3.066 6.736-6.422l12.893-66.453c3.018-15.602 19.222-24.889 34.24-19.541 12.207 4.348 19.148 17.265 16.672 29.984l-14.302 73.474-6.563 33.713c-9.796 50.325-58.534 83.18-108.859 73.384l-20.47-3.985c-4.356-.848-7.2-5.066-6.352-9.422l5.447-27.981c7.807-40.107 40.12-70.893 80.558-76.751z" fill="#ffdfd0"/><path d="m498.696 212.761-14.298 73.477-6.567 33.715c-9.796 50.322-58.533 83.176-108.856 73.379l-9.708-1.889c44.421 1.047 84.438-30.006 93.217-75.092l6.557-33.715 14.308-73.467c1.948-9.992-1.928-20.111-9.591-26.081 5.608-2.221 12.047-2.525 18.271-.303 12.204 4.345 19.143 17.263 16.667 29.976z" fill="#ffcec0"/><g fill="#ee2d3d"><rect height="254" rx="3" width="30" x="233" y="68"/><rect height="146" rx="3" transform="matrix(0 -1 1 0 32 318)" width="30" x="175" y="143"/></g></svg>

<svg width="512" height="446" viewBox="0 0 512 446" fill="none" xmlns="http://www.w3.org/2000/svg">
<path d="M57.669 226.312H454.331V287.013H57.669V226.312Z" fill="#F69583"/>
<path d="M217.934 445.46H112.2C106.51 445.46 101.898 440.848 101.898 435.158V306.638H228.236V435.158C228.236 440.848 223.624 445.46 217.934 445.46V445.46Z" fill="#FFCEC0"/>
<path d="M399.8 445.46H294.066C288.376 445.46 283.764 440.848 283.764 435.158V306.638H410.102V435.158C410.102 440.848 405.49 445.46 399.8 445.46V445.46Z" fill="#FFCEC0"/>
<path d="M78.03 240.015L48.709 159.455C43.966 146.424 29.558 139.706 16.528 144.448C3.497 149.192 -3.222 163.6 1.521 176.631L30.842 257.191L78.03 240.015Z" fill="#FDB0A0"/>
<path d="M48.71 159.459L78.03 240.016L46.676 251.428L17.356 170.871C14.804 163.86 9.45101 158.672 3.02701 156.122C5.83901 150.895 10.514 146.641 16.528 144.452C29.562 139.708 43.966 146.425 48.71 159.459Z" fill="#F69583"/>
<path d="M481.157 257.19L510.478 176.63C515.221 163.599 508.502 149.191 495.472 144.449C482.441 139.706 468.033 146.425 463.291 159.455L433.97 240.015L481.157 257.19Z" fill="#FDB0A0"/>
<path d="M510.479 176.634L481.159 257.191L457.564 248.603L486.884 168.046C490.064 159.308 488.092 149.955 482.522 143.323C486.727 142.573 491.174 142.888 495.471 144.452C508.497 149.193 515.223 163.6 510.479 176.634V176.634Z" fill="#F69583"/>
<path d="M446.84 230.782C499.418 178.072 499.381 92.723 446.721 40.063C396.255 -10.403 315.765 -12.539 262.753 33.648C258.898 37.007 253.1 37.007 249.245 33.648C196.234 -12.54 115.743 -10.404 65.277 40.063C12.618 92.722 12.581 178.072 65.158 230.782L249.447 415.076C253.065 418.694 258.932 418.694 262.55 415.076L446.84 230.782Z" fill="#FB4A59"/>
<path d="M446.843 230.779L262.555 415.077C258.937 418.695 253.062 418.695 249.445 415.077L226.409 392.031L402.442 215.999C455.018 163.289 454.976 77.937 402.318 25.279C392.867 15.827 382.354 8.06598 371.17 2.00598C398.824 6.09798 425.446 18.786 446.72 40.059C499.378 92.728 499.419 178.069 446.843 230.779V230.779Z" fill="#F82F40"/>
<path d="M83.844 275.197C80.461 274.707 77.759 272.131 77.108 268.775L64.215 202.322C61.197 186.72 44.993 177.433 29.975 182.781C17.768 187.129 10.827 200.046 13.303 212.765L27.605 286.239L34.168 319.952C43.964 370.277 92.702 403.132 143.027 393.336L163.497 389.351C167.853 388.503 170.697 384.285 169.849 379.929L164.402 351.948C156.595 311.841 124.281 281.055 83.844 275.197V275.197Z" fill="#FFDFD0"/>
<path d="M163.493 389.349L145.95 392.764L140.156 362.974C132.346 322.869 100.031 292.08 59.593 286.228C56.211 285.736 53.51 283.159 52.859 279.804L39.961 213.348C37.739 201.819 28.295 193.736 17.462 192.464C20.437 188.119 24.714 184.654 29.969 182.785C44.991 177.432 61.198 186.719 64.212 202.319L77.11 268.775C77.761 272.13 80.462 274.707 83.844 275.199C124.282 281.051 156.597 311.84 164.397 351.945L169.847 379.921C170.697 384.279 167.852 388.501 163.493 389.349V389.349Z" fill="#FFCEC0"/>
<path d="M428.156 275.197C431.539 274.707 434.241 272.131 434.892 268.775L447.785 202.322C450.803 186.72 467.007 177.433 482.025 182.781C494.232 187.129 501.173 200.046 498.697 212.765L484.395 286.239L477.832 319.952C468.036 370.277 419.298 403.132 368.973 393.336L348.503 389.351C344.147 388.503 341.303 384.285 342.151 379.929L347.598 351.948C355.405 311.841 387.718 281.055 428.156 275.197V275.197Z" fill="#FFDFD0"/>
<path d="M498.696 212.761L484.398 286.238L477.831 319.953C468.035 370.275 419.298 403.129 368.975 393.332L359.267 391.443C403.688 392.49 443.705 361.437 452.484 316.351L459.041 282.636L473.349 209.169C475.297 199.177 471.421 189.058 463.758 183.088C469.366 180.867 475.805 180.563 482.029 182.785C494.233 187.13 501.172 200.048 498.696 212.761Z" fill="#FFCEC0"/>
<rect x="233" y="68" width="30" height="254" rx="3" fill="#EE2D3D"/>
<rect x="175" y="143" width="30" height="146" rx="3" transform="rotate(-90 175 143)" fill="#EE2D3D"/>
</svg>
